!!!OTL: Xia sichuan
!!!ARE: Asia, China,ÿNingxia, Xiji
!! I, 202
!!!SCT: C1433
!!!YEM: Copyright 1995, estate of Helmut Schaffrath.
**kern
*ICvox
*Ivox
*M2/4
*k[b-]
*F:
{8cc
8ff
16dd
16ff
16dd
16cc
=1
16b-
16dd
16cc
16b-
4g
=2
8cc
8ff
16dd
16ff
16dd
16cc
=3
16b-
16dd
16cc
16b-
4g}
=4
{8ff
16ff
16dd
8ff
8dd
=5
16cc
16ff
16dd
16cc
8b-
16a
16g
=6
8f
4c
8cc
=7
8.b-
16a
16g
16f
16e
16d
=8
2c}
==
!!!AGN: Xiaodiao
!!!ONB: ESAC (Essen Associative Code) Database: HUANG
!!!AMT: simple duple
!!!AIN: vox
!!!EED: Helmut Schaffrath
!!!EEV: 1.0
*-
